build/img/sprites/rating.svg

<svg width="127" height="41" viewBox="0 0 127 41" fill="none" xmlns="http://www.w3.org/2000/svg">
<mask id="mask0_514_5453" style="mask-type:luminance" maskUnits="userSpaceOnUse" x="0" y="0" width="127" height="26">
<path d="M126.349 0.954224H0.277344V25.7553H126.349V0.954224Z" fill="white"/>
</mask>
<g mask="url(#mask0_514_5453)">
<path fill-rule="evenodd" clip-rule="evenodd" d="M35.9626 11.0858L42.2999 11.0815C46.2954 11.0815 48.3617 12.8721 48.3631 16.0409C48.3631 18.2456 47.2753 21.0016 42.3073 21.0016H31.2773V5.70801H47.2593V9.15227H35.9611L35.9626 11.0858ZM41.7488 17.5559C42.9897 17.5559 43.6779 17.0047 43.6779 16.0409C43.6779 15.0769 42.9882 14.5257 41.7488 14.5257H35.9611V17.5559H41.7488ZM106.001 17.4182H110.64C110.64 18.3835 109.798 21.2765 103.619 21.2751H103.058C97.3009 21.2751 95.8965 18.1749 95.8965 15.4263V15.1375C95.8965 12.3202 97.1358 9.28868 103.061 9.28868H103.475C109.675 9.28868 110.639 12.4573 110.639 15.7573V16.1772L100.433 16.1757C100.575 17.5537 101.547 18.382 103.562 18.382C105.545 18.382 105.829 17.7793 105.973 17.476L105.978 17.4642L105.986 17.4467C105.991 17.4368 105.996 17.4272 106.001 17.4182ZM105.956 13.9724C105.956 13.0085 105.405 12.0446 103.2 12.0446C101.271 12.0446 100.582 12.8714 100.444 13.9738L105.956 13.9724ZM121.783 16.4549H126.348C126.348 18.1085 125.246 21.2771 119.321 21.2757H119.045C113.121 21.2757 111.881 17.6943 111.881 15.4896V15.0769C111.881 12.8735 113.052 9.2893 119.045 9.29069H119.321C125.174 9.2893 126.348 12.3223 126.348 13.9759H121.801C121.683 13.2862 121.111 12.3223 119.321 12.3223H119.045C117.255 12.3223 116.428 13.7003 116.428 15.2154V15.3525C116.428 16.869 117.391 18.1085 119.045 18.1085H119.321C121.25 18.1085 121.664 17.0061 121.783 16.4549ZM90.1101 21.0019H94.5193V9.56668H90.1101V13.6992H84.8747V9.56668H80.4656V21.0019H84.8747V16.8679H90.1101V21.0019ZM79.0868 17.5567V17.6939C79.0868 19.8987 76.7446 21.2767 72.3365 21.2767H71.7852C67.1001 21.2767 65.0338 19.4845 65.0338 17.1703V17.007L69.5804 17.0055C69.7175 18.2451 70.8199 18.5207 72.198 18.5207C73.7436 18.5207 74.5398 18.2451 74.5398 17.4183C74.5398 16.5783 73.9828 16.3173 72.8074 16.3173L70.4072 16.3158V13.8354H72.7492C73.7145 13.8354 74.1271 13.5598 74.1271 12.8716C74.1271 12.1818 73.4389 11.7692 72.0608 11.7692C70.6828 11.7692 69.9961 12.1818 69.856 13.0086H65.1709V12.8686C65.1709 10.5283 67.9269 9.28875 71.9223 9.28875H72.198C76.1934 9.28875 78.6737 10.3912 78.6737 12.3204V12.596C78.6737 14.2496 77.1018 14.8723 76.138 15.0778C77.3119 15.3039 79.0868 15.7661 79.0868 17.5567ZM59.3842 21.0019H63.7939V9.56668H59.2471L54.1492 16.1796V9.56668H49.7397V21.0019H54.2863L59.3842 14.3889V21.0019Z" fill="#323555"/>
<path fill-rule="evenodd" clip-rule="evenodd" d="M25.0785 13.3548C25.0785 20.2035 19.5266 25.7553 12.6779 25.7553C5.82926 25.7553 0.277344 20.2035 0.277344 13.3548C0.277344 6.50614 5.82926 0.954224 12.6779 0.954224C19.5266 0.954224 25.0785 6.50614 25.0785 13.3548ZM16.6781 20.4238V6.27048H13.1157C9.66999 6.27048 7.61389 7.98241 7.61389 10.8492C7.61389 13.1036 8.76731 14.3912 10.4997 15.6321L10.5288 15.6525L10.5084 15.6817L7.31643 20.4369H9.91785L13.4861 15.1043L12.2641 14.2804C10.7257 13.2363 9.99365 12.4357 9.99365 10.7034C9.99365 9.08775 11.166 8.1224 13.1288 8.1224H14.2356H14.2721V8.15885V20.4238H16.6781Z" fill="#323555"/>
</g>
<path d="M1.25391 38.4812V32.1932H3.70623C4.25718 32.1932 4.72728 32.28 5.11654 32.4537C5.50579 32.6274 5.80522 32.8789 6.01482 33.2083C6.22442 33.5376 6.32922 33.9299 6.32922 34.385C6.32922 34.8402 6.22442 35.2324 6.01482 35.5618C5.80522 35.8852 5.50579 36.1367 5.11654 36.3163C4.72728 36.49 4.25718 36.5768 3.70623 36.5768H1.74796L2.15219 36.1546V38.4812H1.25391ZM2.15219 36.2445L1.74796 35.7953H3.67928C4.25418 35.7953 4.68835 35.6726 4.98179 35.427C5.28122 35.1815 5.43093 34.8342 5.43093 34.385C5.43093 33.9359 5.28122 33.5885 4.98179 33.343C4.68835 33.0975 4.25418 32.9747 3.67928 32.9747H1.74796L2.15219 32.5256V36.2445Z" fill="#9095AD"/>
<path d="M9.53743 38.5351C9.02841 38.5351 8.57926 38.4303 8.19001 38.2207C7.80674 38.0111 7.50731 37.7237 7.29172 37.3583C7.08212 36.993 6.97732 36.5738 6.97732 36.1007C6.97732 35.6277 7.07913 35.2085 7.28274 34.8431C7.49234 34.4778 7.77679 34.1934 8.13611 33.9898C8.50141 33.7802 8.91163 33.6754 9.36676 33.6754C9.82788 33.6754 10.2351 33.7772 10.5884 33.9808C10.9418 34.1844 11.2172 34.4719 11.4149 34.8431C11.6185 35.2085 11.7203 35.6366 11.7203 36.1277C11.7203 36.1636 11.7173 36.2055 11.7113 36.2535C11.7113 36.3014 11.7083 36.3463 11.7023 36.3882H7.65103V35.7684H11.2532L10.9028 35.984C10.9088 35.6786 10.8459 35.4061 10.7142 35.1665C10.5824 34.927 10.3998 34.7413 10.1662 34.6096C9.93867 34.4719 9.67218 34.403 9.36676 34.403C9.06733 34.403 8.80084 34.4719 8.56729 34.6096C8.33373 34.7413 8.15108 34.93 8.01933 35.1755C7.88758 35.4151 7.82171 35.6905 7.82171 36.0019V36.1457C7.82171 36.4631 7.89357 36.7475 8.0373 36.999C8.18701 37.2446 8.39362 37.4362 8.65711 37.5739C8.92061 37.7117 9.22303 37.7805 9.56438 37.7805C9.84585 37.7805 10.1004 37.7326 10.3279 37.6368C10.5615 37.541 10.7651 37.3973 10.9388 37.2056L11.4149 37.7626C11.1993 38.0141 10.9298 38.2057 10.6064 38.3375C10.289 38.4692 9.93268 38.5351 9.53743 38.5351Z" fill="#9095AD"/>
<path d="M15.8459 38.4812V37.4751L15.801 37.2865V35.5708C15.801 35.2055 15.6932 34.924 15.4776 34.7264C15.268 34.5228 14.9506 34.421 14.5254 34.421C14.244 34.421 13.9685 34.4689 13.699 34.5647C13.4295 34.6545 13.202 34.7773 13.0163 34.933L12.657 34.2862C12.9025 34.0886 13.196 33.9389 13.5373 33.8371C13.8847 33.7293 14.247 33.6754 14.6243 33.6754C15.277 33.6754 15.7801 33.8341 16.1334 34.1515C16.4867 34.4689 16.6634 34.9539 16.6634 35.6067V38.4812H15.8459ZM14.2829 38.5351C13.9296 38.5351 13.6182 38.4752 13.3487 38.3554C13.0852 38.2357 12.8816 38.071 12.7379 37.8614C12.5941 37.6458 12.5223 37.4033 12.5223 37.1338C12.5223 36.8763 12.5822 36.6427 12.7019 36.4331C12.8277 36.2235 13.0283 36.0558 13.3038 35.9301C13.5852 35.8043 13.9625 35.7414 14.4356 35.7414H15.9447V36.3613H14.4715C14.0404 36.3613 13.7499 36.4331 13.6002 36.5768C13.4505 36.7206 13.3756 36.8942 13.3756 37.0978C13.3756 37.3314 13.4685 37.52 13.6541 37.6638C13.8398 37.8015 14.0973 37.8704 14.4266 37.8704C14.75 37.8704 15.0315 37.7985 15.271 37.6548C15.5166 37.5111 15.6932 37.3015 15.801 37.026L15.9717 37.6189C15.8579 37.9003 15.6573 38.1249 15.3698 38.2926C15.0824 38.4543 14.7201 38.5351 14.2829 38.5351Z" fill="#9095AD"/>
<path d="M17.4257 38.4722L17.4796 37.7446C17.5215 37.7506 17.5605 37.7566 17.5964 37.7626C17.6323 37.7686 17.6653 37.7716 17.6952 37.7716C17.8868 37.7716 18.0366 37.7057 18.1443 37.5739C18.2581 37.4422 18.342 37.2685 18.3959 37.0529C18.4498 36.8314 18.4887 36.5828 18.5126 36.3074C18.5366 36.0319 18.5546 35.7564 18.5665 35.4809L18.6474 33.7203H22.3034V38.4812H21.4411V34.2233L21.6477 34.4749H19.2043L19.4019 34.2143L19.3391 35.5348C19.3211 35.954 19.2882 36.3463 19.2403 36.7116C19.1923 37.0769 19.1175 37.3973 19.0157 37.6727C18.9199 37.9482 18.7851 38.1638 18.6115 38.3195C18.4438 38.4752 18.2252 38.5531 17.9557 38.5531C17.8779 38.5531 17.794 38.5441 17.7042 38.5261C17.6203 38.5141 17.5275 38.4962 17.4257 38.4722Z" fill="#9095AD"/>
<path d="M26.1717 35.3372C26.7765 35.3432 27.2376 35.4809 27.555 35.7504C27.8724 36.0199 28.0311 36.4002 28.0311 36.8912C28.0311 37.4063 27.8574 37.8045 27.5101 38.086C27.1628 38.3614 26.6717 38.4962 26.0369 38.4902L23.9709 38.4812V33.7203H24.8332V35.3282L26.1717 35.3372ZM25.965 37.8344C26.3543 37.8404 26.6477 37.7626 26.8454 37.6009C27.049 37.4392 27.1508 37.1997 27.1508 36.8823C27.1508 36.5709 27.052 36.3433 26.8543 36.1996C26.6567 36.0558 26.3603 35.981 25.965 35.975L24.8332 35.957V37.8255L25.965 37.8344Z" fill="#9095AD"/>
<path d="M29.1377 38.4812V33.7203H30.0001V35.7414H32.7129V33.7203H33.5753V38.4812H32.7129V36.487H30.0001V38.4812H29.1377Z" fill="#9095AD"/>
<path d="M39.9591 38.4812V33.7203H40.8214V38.4812H39.9591ZM37.399 35.3372C38.0038 35.3432 38.4619 35.4809 38.7733 35.7504C39.0907 36.0199 39.2494 36.4002 39.2494 36.8912C39.2494 37.4063 39.0758 37.8045 38.7284 38.086C38.3871 38.3614 37.896 38.4962 37.2552 38.4902L35.2521 38.4812V33.7203H36.1144V35.3282L37.399 35.3372ZM37.1924 37.8344C37.5756 37.8404 37.8691 37.7626 38.0727 37.6009C38.2763 37.4392 38.3781 37.1997 38.3781 36.8823C38.3781 36.5709 38.2763 36.3433 38.0727 36.1996C37.875 36.0558 37.5816 35.981 37.1924 35.975L36.1144 35.957V37.8255L37.1924 37.8344Z" fill="#9095AD"/>
<path d="M42.498 38.4812V33.7203H43.3603V37.1877L46.2798 33.7203H47.0613V38.4812H46.1989V35.0138L43.2885 38.4812H42.498ZM44.7257 33.1005C44.2886 33.1005 43.9442 32.9957 43.6927 32.7861C43.4472 32.5705 43.3214 32.2621 43.3154 31.8608H43.8993C43.9053 32.0884 43.9802 32.2681 44.1239 32.3998C44.2736 32.5316 44.4712 32.5974 44.7168 32.5974C44.9623 32.5974 45.1599 32.5316 45.3096 32.3998C45.4593 32.2681 45.5372 32.0884 45.5432 31.8608H46.145C46.139 32.2621 46.0103 32.5705 45.7588 32.7861C45.5073 32.9957 45.1629 33.1005 44.7257 33.1005Z" fill="#9095AD"/>
<path d="M53.6717 38.5351C53.2764 38.5351 52.9141 38.4453 52.5848 38.2656C52.2614 38.08 52.0009 37.8075 51.8032 37.4482C51.6116 37.0889 51.5158 36.6397 51.5158 36.1007C51.5158 35.5618 51.6086 35.1126 51.7943 34.7533C51.9859 34.394 52.2434 34.1245 52.5668 33.9449C52.8962 33.7652 53.2645 33.6754 53.6717 33.6754C54.1388 33.6754 54.552 33.7772 54.9113 33.9808C55.2706 34.1844 55.5551 34.4689 55.7647 34.8342C55.9743 35.1935 56.0791 35.6157 56.0791 36.1007C56.0791 36.5858 55.9743 37.011 55.7647 37.3763C55.5551 37.7416 55.2706 38.0261 54.9113 38.2297C54.552 38.4333 54.1388 38.5351 53.6717 38.5351ZM51.1475 40.2239V33.7203H51.9739V35.0048L51.92 36.1097L52.0099 37.2146V40.2239H51.1475ZM53.5998 37.7805C53.9052 37.7805 54.1777 37.7117 54.4173 37.5739C54.6628 37.4362 54.8544 37.2416 54.9922 36.9901C55.1359 36.7325 55.2078 36.4361 55.2078 36.1007C55.2078 35.7594 55.1359 35.466 54.9922 35.2204C54.8544 34.9689 54.6628 34.7743 54.4173 34.6365C54.1777 34.4988 53.9052 34.4299 53.5998 34.4299C53.3004 34.4299 53.0279 34.4988 52.7824 34.6365C52.5428 34.7743 52.3512 34.9689 52.2075 35.2204C52.0697 35.466 52.0009 35.7594 52.0009 36.1007C52.0009 36.4361 52.0697 36.7325 52.2075 36.9901C52.3512 37.2416 52.5428 37.4362 52.7824 37.5739C53.0279 37.7117 53.3004 37.7805 53.5998 37.7805Z" fill="#9095AD"/>
<path d="M59.4519 38.5351C58.9429 38.5351 58.4938 38.4303 58.1045 38.2207C57.7212 38.0111 57.4218 37.7237 57.2062 37.3583C56.9966 36.993 56.8918 36.5738 56.8918 36.1007C56.8918 35.6277 56.9936 35.2085 57.1972 34.8431C57.4068 34.4778 57.6913 34.1934 58.0506 33.9898C58.4159 33.7802 58.8261 33.6754 59.2813 33.6754C59.7424 33.6754 60.1496 33.7772 60.5029 33.9808C60.8563 34.1844 61.1317 34.4719 61.3294 34.8431C61.533 35.2085 61.6348 35.6366 61.6348 36.1277C61.6348 36.1636 61.6318 36.2055 61.6258 36.2535C61.6258 36.3014 61.6228 36.3463 61.6168 36.3882H57.5655V35.7684H61.1677L60.8173 35.984C60.8233 35.6786 60.7604 35.4061 60.6287 35.1665C60.4969 34.927 60.3143 34.7413 60.0807 34.6096C59.8532 34.4719 59.5867 34.403 59.2813 34.403C58.9818 34.403 58.7154 34.4719 58.4818 34.6096C58.2482 34.7413 58.0656 34.93 57.9338 35.1755C57.8021 35.4151 57.7362 35.6905 57.7362 36.0019V36.1457C57.7362 36.4631 57.8081 36.7475 57.9518 36.999C58.1015 37.2446 58.3081 37.4362 58.5716 37.5739C58.8351 37.7117 59.1375 37.7805 59.4789 37.7805C59.7604 37.7805 60.0149 37.7326 60.2424 37.6368C60.476 37.541 60.6796 37.3973 60.8533 37.2056L61.3294 37.7626C61.1138 38.0141 60.8443 38.2057 60.5209 38.3375C60.2035 38.4692 59.8472 38.5351 59.4519 38.5351Z" fill="#9095AD"/>
<path d="M62.9726 38.4812V33.7203H63.8349V37.1877L66.7544 33.7203H67.5359V38.4812H66.6735V35.0138L63.7631 38.4812H62.9726ZM65.2003 33.1005C64.7632 33.1005 64.4188 32.9957 64.1673 32.7861C63.9218 32.5705 63.796 32.2621 63.79 31.8608H64.3739C64.3799 32.0884 64.4548 32.2681 64.5985 32.3998C64.7482 32.5316 64.9458 32.5974 65.1914 32.5974C65.4369 32.5974 65.6345 32.5316 65.7842 32.3998C65.9339 32.2681 66.0118 32.0884 66.0178 31.8608H66.6196C66.6136 32.2621 66.4849 32.5705 66.2334 32.7861C65.9818 32.9957 65.6375 33.1005 65.2003 33.1005Z" fill="#9095AD"/>
<path d="M70.1529 38.4812V34.2503L70.3685 34.4749H68.4102V33.7203H72.7579V34.4749H70.8087L71.0153 34.2503V38.4812H70.1529Z" fill="#9095AD"/>
<path d="M73.6397 38.4812V33.7203H74.5021V37.1877L77.4215 33.7203H78.203V38.4812H77.3407V35.0138L74.4302 38.4812H73.6397Z" fill="#9095AD"/>
<path d="M79.8769 38.4812V33.7203H80.7392V35.7414H83.452V33.7203H84.3144V38.4812H83.452V36.487H80.7392V38.4812H79.8769Z" fill="#9095AD"/>
<path d="M85.9912 38.4812V33.7203H89.4945V34.4749H86.6469L86.8535 34.2772V38.4812H85.9912Z" fill="#9095AD"/>
</svg>

<svg width="127" height="41" viewBox="0 0 127 41" fill="none" xmlns="http://www.w3.org/2000/svg"><mask id="mask0_514_5453" style="mask-type:luminance" maskUnits="userSpaceOnUse" x="0" y="0" width="127" height="26"><path d="M126.349.954H.277v24.801H126.35V.955z" fill="#fff"/></mask><g mask="url(#mask0_514_5453)" fill-rule="evenodd" clip-rule="evenodd" fill="#323555"><path d="M35.963 11.086l6.337-.005c3.995 0 6.062 1.791 6.063 4.96 0 2.205-1.088 4.96-6.056 4.96h-11.03V5.709H47.26v3.444H35.961l.002 1.934zm5.786 6.47c1.24 0 1.929-.551 1.929-1.515 0-.964-.69-1.515-1.93-1.515h-5.787v3.03h5.788zM106 17.418h4.639c0 .966-.842 3.858-7.021 3.857h-.561c-5.757 0-7.162-3.1-7.162-5.849v-.289c0-2.817 1.24-5.848 7.165-5.848h.414c6.2 0 7.164 3.168 7.164 6.468v.42l-10.206-.001c.142 1.378 1.114 2.206 3.129 2.206 1.983 0 2.267-.603 2.411-.906l.005-.012.008-.017.015-.029zm-.045-3.446c0-.963-.551-1.927-2.756-1.927-1.929 0-2.618.826-2.756 1.929l5.512-.002zm15.827 2.483h4.565c0 1.654-1.102 4.822-7.027 4.82h-.276c-5.924 0-7.164-3.58-7.164-5.785v-.413c0-2.204 1.171-5.788 7.164-5.786h.276c5.853-.002 7.027 3.031 7.027 4.685H121.8c-.118-.69-.69-1.654-2.48-1.654h-.276c-1.79 0-2.617 1.378-2.617 2.893v.137c0 1.517.963 2.756 2.617 2.756h.276c1.929 0 2.343-1.102 2.462-1.653zM90.11 21.002h4.41V9.567h-4.41v4.132h-5.235V9.567h-4.41v11.435h4.41v-4.134h5.235v4.134zm-11.023-3.445v.137c0 2.205-2.342 3.583-6.75 3.583h-.552c-4.685 0-6.751-1.793-6.751-4.107v-.163l4.546-.002c.138 1.24 1.24 1.516 2.618 1.516 1.546 0 2.342-.276 2.342-1.103 0-.84-.557-1.1-1.733-1.1l-2.4-.002v-2.48h2.342c.966 0 1.378-.276 1.378-.964 0-.69-.688-1.103-2.066-1.103s-2.065.413-2.205 1.24h-4.685v-.14c0-2.34 2.756-3.58 6.751-3.58h.276c3.995 0 6.476 1.102 6.476 3.031v.276c0 1.654-1.572 2.276-2.536 2.482 1.174.226 2.949.688 2.949 2.479zm-19.703 3.445h4.41V9.567h-4.547L54.15 16.18V9.567h-4.41v11.435h4.547l5.098-6.613v6.613zm-34.306-7.647c0 6.848-5.551 12.4-12.4 12.4s-12.4-5.552-12.4-12.4c0-6.849 5.551-12.4 12.4-12.4s12.4 5.551 12.4 12.4zm-8.4 7.069V6.27h-3.562c-3.446 0-5.502 1.712-5.502 4.58 0 2.254 1.153 3.541 2.886 4.782l.029.02-.02.03-3.193 4.755h2.602l3.568-5.333-1.222-.824c-1.538-1.044-2.27-1.844-2.27-3.577 0-1.615 1.172-2.58 3.135-2.58h1.143v12.301h2.406z"/></g><path d="M1.254 38.481v-6.288h2.452c.551 0 1.021.087 1.41.26.39.174.69.426.899.755.21.33.314.722.314 1.177 0 .455-.105.847-.314 1.177a2.08 2.08 0 01-.898.754c-.39.174-.86.26-1.41.26h-1.96l.404-.421v2.326h-.898zm.898-2.236l-.404-.45h1.931c.575 0 1.01-.122 1.303-.368.3-.245.449-.593.449-1.042 0-.45-.15-.796-.45-1.042-.293-.246-.727-.368-1.302-.368H1.748l.404-.45v3.72zm7.385 2.29c-.509 0-.958-.105-1.347-.314a2.305 2.305 0 01-.898-.863 2.482 2.482 0 01-.315-1.257c0-.473.102-.892.306-1.258.21-.365.494-.65.853-.853.365-.21.776-.315 1.23-.315.462 0 .87.102 1.222.306.354.203.63.49.827.862.204.365.305.794.305 1.285 0 .036-.003.078-.009.126a.951.951 0 01-.009.134H7.651v-.62h3.602l-.35.216a1.602 1.602 0 00-.189-.818 1.401 1.401 0 00-.548-.556 1.514 1.514 0 00-.8-.207c-.299 0-.565.069-.799.207-.233.131-.416.32-.548.566-.131.24-.197.514-.197.826v.144c0 .317.072.602.215.853.15.246.357.437.62.575.264.138.566.207.907.207.282 0 .536-.048.764-.144a1.67 1.67 0 00.61-.431l.477.557a2.08 2.08 0 01-.809.575 2.765 2.765 0 01-1.069.197zm6.309-.054v-1.006l-.045-.189v-1.715c0-.365-.108-.647-.323-.845-.21-.203-.527-.305-.953-.305a2.45 2.45 0 00-.826.144c-.27.09-.497.212-.683.368l-.359-.647c.245-.197.539-.347.88-.449.348-.108.71-.162 1.087-.162.653 0 1.156.16 1.51.477.353.317.53.802.53 1.455v2.874h-.818zm-1.563.054a2.28 2.28 0 01-.934-.18 1.442 1.442 0 01-.611-.494 1.282 1.282 0 01-.216-.727c0-.258.06-.491.18-.7.126-.21.326-.378.602-.504.281-.126.659-.189 1.132-.189h1.509v.62h-1.473c-.432 0-.722.072-.872.216a.696.696 0 00-.224.52c0 .234.093.423.278.567.186.137.443.206.773.206.323 0 .604-.072.844-.215a1.22 1.22 0 00.53-.629l.17.593a1.363 1.363 0 01-.601.674c-.288.161-.65.242-1.087.242zm3.143-.063l.054-.727.116.018a.604.604 0 00.1.009.548.548 0 00.448-.198c.114-.132.198-.305.252-.521.054-.222.093-.47.117-.746.024-.275.042-.55.053-.826l.081-1.76h3.656v4.76h-.862v-4.258l.207.252h-2.444l.198-.26-.063 1.32c-.018.419-.05.811-.099 1.177a4.457 4.457 0 01-.224.96c-.096.276-.23.492-.404.648-.168.155-.387.233-.656.233a1.29 1.29 0 01-.252-.027 3.193 3.193 0 01-.278-.054zm8.746-3.135c.604.006 1.066.144 1.383.413.317.27.476.65.476 1.141 0 .515-.174.913-.52 1.195-.348.275-.84.41-1.474.404l-2.066-.009v-4.76h.862v1.607l1.339.01zm-.207 2.497c.39.006.683-.071.88-.233.204-.162.306-.401.306-.719 0-.311-.099-.539-.297-.682-.197-.144-.494-.219-.889-.225l-1.132-.018v1.868l1.132.01zm3.173.647v-4.76H30v2.02h2.713v-2.02h.862v4.76h-.862v-1.994H30v1.994h-.862zm10.822 0v-4.76h.861v4.76h-.862zm-2.561-3.144c.605.006 1.063.144 1.374.413.318.27.476.65.476 1.141 0 .515-.173.913-.52 1.195-.342.275-.833.41-1.474.404l-2.003-.009v-4.76h.862v1.607l1.285.01zm-.207 2.497c.384.006.677-.071.88-.233.204-.162.306-.401.306-.719 0-.311-.102-.539-.305-.682-.198-.144-.491-.219-.88-.225l-1.079-.018v1.868l1.078.01zm5.306.647v-4.76h.862v3.467l2.92-3.468h.781v4.761H46.2v-3.467l-2.91 3.467h-.791zm2.228-5.38c-.437 0-.782-.105-1.033-.315-.246-.215-.372-.524-.378-.925h.584a.723.723 0 00.225.539c.15.132.347.197.593.197.245 0 .443-.065.593-.197a.708.708 0 00.233-.54h.602c-.006.402-.135.71-.386.926-.252.21-.596.314-1.033.314zm8.946 5.434c-.396 0-.758-.09-1.087-.27a2.06 2.06 0 01-.782-.817c-.191-.36-.287-.808-.287-1.347 0-.54.093-.988.278-1.348.192-.359.45-.629.773-.808.33-.18.697-.27 1.105-.27.467 0 .88.102 1.24.306.359.203.643.488.853.853.21.36.314.782.314 1.267 0 .485-.105.91-.314 1.275-.21.366-.494.65-.854.854a2.47 2.47 0 01-1.24.305zm-2.524 1.689V33.72h.826v1.285l-.054 1.105.09 1.105v3.009h-.862zM53.6 37.78c.305 0 .578-.07.817-.207.246-.138.437-.332.575-.584.144-.258.216-.554.216-.89 0-.34-.072-.634-.216-.88a1.46 1.46 0 00-.575-.584 1.61 1.61 0 00-.817-.206c-.3 0-.572.069-.818.206-.24.138-.43.333-.574.584a1.772 1.772 0 00-.207.88c0 .336.069.633.207.89.143.252.335.446.574.584.246.138.518.207.818.207zm5.852.755c-.51 0-.958-.105-1.347-.314a2.305 2.305 0 01-.899-.863 2.482 2.482 0 01-.314-1.257c0-.473.102-.892.305-1.258.21-.365.494-.65.854-.853.365-.21.775-.315 1.23-.315a2.4 2.4 0 011.222.306c.353.203.629.49.826.862.204.365.306.794.306 1.285a.88.88 0 01-.01.126.951.951 0 01-.008.134h-4.051v-.62h3.602l-.35.216a1.602 1.602 0 00-.19-.818 1.401 1.401 0 00-.547-.556 1.514 1.514 0 00-.8-.207c-.3 0-.566.069-.8.207-.233.131-.415.32-.547.566-.132.24-.198.514-.198.826v.144c0 .317.072.602.216.853.15.246.356.437.62.575.263.138.566.207.907.207.281 0 .536-.048.763-.144.234-.096.438-.24.611-.431l.476.557a2.08 2.08 0 01-.808.575 2.765 2.765 0 01-1.07.197zm3.521-.054v-4.76h.862v3.467l2.92-3.468h.78v4.761h-.861v-3.467l-2.91 3.467h-.791zm2.227-5.38c-.437 0-.781-.105-1.033-.315-.245-.215-.371-.524-.377-.925h.584c.006.227.08.407.225.539.15.132.347.197.592.197.246 0 .444-.065.593-.197a.708.708 0 00.234-.54h.602c-.006.402-.135.71-.387.926-.251.21-.596.314-1.033.314zm4.953 5.38v-4.23l.215.224H68.41v-.755h4.348v.755h-1.95l.207-.225v4.231h-.862zm3.487 0v-4.76h.862v3.467l2.92-3.468h.781v4.761h-.862v-3.467l-2.91 3.467h-.791zm6.237 0v-4.76h.862v2.02h2.713v-2.02h.862v4.76h-.862v-1.994h-2.713v1.994h-.862zm6.114 0v-4.76h3.504v.754h-2.848l.206-.198v4.204h-.862z" fill="#9095AD"/></svg>
